X: 10149
T: Ding Dong Merrily On High
R: reel
M: 4/4
K: Dmajor
d2 dd edcB|AecA dcBA|GBdB Acec|Addc d2 (3ABd|
dAAA edcB|Ae z e dcBA|Gd (3BdB Acec|Addc (d2 d2)|
aAAg fgaf|gAAf efge|fAAe defd|eAAd cdec|
dGGc BcdB|ceBe A2 (3ABA|GBdB Acec|Addc (d2 d2)|
AaAg fgaf|AgAf efge|AfAe defd|Ae z d cdec|
Gd z c BcdB|cdcB AceA|GBdB Acec|Addc (d2 d2)|

